!!!!SEGMENT: pl-wtm--r-1588--007_stefani-jozef--antiphonae-ad-vesperas-magnificat.krn
!!!cenid: 18xx:2348
!!!COM: Stefani, Józef
!!!COM-rismid: pe30024097
!!!CDT: 1800/04/16-1876/03/19
!!!CNT: Polish
!!!OPR: Antiphonae ad Vesperas
!!!OTL: Magnificat
!!!OMV: 007
!!!PDT:
!!!AGN: Sacred; Vespers
!!!SMS-siglum: PL-Wtm
!!!SMS-shelfmark: R 1588
!!!SMS-shelfwork: 001-007 M
!!!SMS-variant:
!!!SMS-altvar:
!!!NIFC-rismid: 1001115605
!!!URL-scan: http://repozytorium.nifc.pl/skany/pl-wtm-nut--r1588
!!!ONB-nifc: UWAGA: części: 4 Antyfony (001-004), Hymnus (005) i Magnificat (006)
!!!OMD: Adagio.
**kern	**text	**text	**dynam	**kern	**dynam	**kern	**text	**text	**dynam
*part3	*part3	*part3	*part3	*part2	*part2	*part1	*part1	*part1	*part1
*staff3	*staff3	*staff3	*	*staff2	*	*staff1	*staff1	*staff1	*
*Iempty	*	*	*	*Itenor	*	*Itenor	*	*	*
*I"Basſo	*	*	*	*I"Tenore 2º.	*	*I"Tenore 1º.	*	*	*
*clefF4	*	*	*	*clefC4	*	*clefC4	*	*	*
*k[f#c#g#]	*	*	*	*k[c#f#g#]	*	*k[c#f#g#]	*	*	*
*A:	*	*	*	*A:	*	*A:	*	*	*
*M4/4	*	*	*	*M4/4	*	*M4/4	*	*	*
*met(c)	*	*	*	*met(c)	*	*met(c)	*	*	*
*all\right	*	*	*	*all\right	*	*all\right	*	*	*
=1	=1	=1	=1	=1	=1	=1	=1	=1	=1
*2\right	*	*	*	*	*	*2\right	*	*	*
!	!	!	!	!	!	!	!	!	!LO:DY:rj
2F#\	San-	.	.	2A/	.	2c#\	San-	.	mf <
2E\	-cta	.	.	2G#/	.	2e\	-cta	.	[
=2	=2	=2	=2	=2	=2	=2	=2	=2	=2
4.D\	Ma-	.	.	4.A/	.	4.f#\	Ma-	.	>
8D\	-ri-	.	.	8A/	.	8f#\	-ri-	.	.
4C#/	-a	.	.	4A/	.	4e\	-a	.	]
(4C#/	suc-	.	.	(4A/	.	[4e\	suc-	.	.
=3	=3	=3	=3	=3	=3	=3	=3	=3	=3
4.BB/)	.	.	.	4.F#/)	.	4.e\]	.	.	.
8BB/	-cur-	.	.	8G#/	.	8d\	-cur-	.	.
4AA/	-re	.	.	4A/	.	4c#\	-re	.	.
4E\	mi-	.	.	4G#/	.	4B\	mi-	.	.
!!LO:LB:g=original
=4	=4	=4	=4	=4	=4	=4	=4	=4	=4
*	*	*	*	*2\right	*	*	*	*	*
(4AA/	-se-	.	.	2A\	.	(4c#\	-se-	.	.
4D#X\)	.	.	.	.	.	4cn^\)	.	.	.
2E\	-ris,	.	.	2G#\	.	2B\	-ris,	.	.
=5	=5	=5	=5	=5	=5	=5	=5	=5	=5
4.F#\	ju-	.	.	4.A\	.	4.d\	ju-	.	.
8F#\	-ra	.	.	8A\	.	8d\	-ra	.	.
4G#\	pu-	.	.	4B\	.	4B\	pu-	.	.
4G#\	-sil-	.	.	4B\	.	(8e\L	-sil-	.	.
.	.	.	.	.	.	8d\J)	.	.	.
=6	=6	=6	=6	=6	=6	=6	=6	=6	=6
4.A\	-la-	.	.	4.A\	.	4.c#\	-la-	.	.
8AA/	-ni-	.	.	8B\	.	8d\	-ni-	.	.
4AA/	-mes,	.	.	4c#\	.	4e\	-mes,	.	.
8r	.	.	.	8r	.	8r	.	.	.
!	!	!	!LO:DY:rj	!	!	!	!	!	!LO:DY:rj
8Gn\	re-	.	p	8A\	.	8c#\	re-	.	p
=7	=7	=7	=7	=7	=7	=7	=7	=7	=7
2Fn\	-fo-	.	.	2A\	.	2d\	-fo-	.	.
2D\	-ve	.	.	2d\	.	2fn\	-ve	.	.
!!LO:LB:g=original
=8	=8	=8	=8	=8	=8	=8	=8	=8	=8
4.A\	fle-	.	.	4.d\	.	4.fn\	fle-	.	.
8AA/	-bi-	.	.	8c#\	.	8e\	-bi-	.	.
8AA/	-les:	.	.	8c#\	.	8e\	-les:	.	.
!	!	!	!LO:DY:rj:t=for.	!	!	!	!	!	!LO:DY:rj:t=for.
8D\	o-	.	f	8A\	.	8f#X\	o-	.	f
8D\	-ra	.	.	8A\	.	8f#\	-ra	.	.
8D\	pro	.	.	8A\	.	8f#\	pro	.	.
=9	=9	=9	=9	=9	=9	=9	=9	=9	=9
4.D\	po-	.	.	4.A\	.	4.f#\	po-	.	.
8F#\	-pu-	.	.	8A\	.	8d\	-pu-	.	.
4F#\	-lo,	.	.	4A\	.	4d\	-lo,	.	.
!	!	!	!LO:DY:rj	!	!	!	!	!	!LO:DY:rj
8F#\	in-	.	p	8A\	.	8d\	in-	.	p
8C#/	-ter-	.	.	8A\	.	8e\	-ter-	.	.
=10	=10	=10	=10	=10	=10	=10	=10	=10	=10
2D\	-ve-	.	.	4.A\	.	2f#\	-ve-	.	.
.	.	.	.	8d\	.	.	.	.	.
4A\	-ni	.	.	4c#\	.	4e\	-ni	.	.
4B\	pro	.	.	4B\	.	4d\	pro	.	.
=11	=11	=11	=11	=11	=11	=11	=11	=11	=11
2A\	Cle-	.	.	2c#\	.	2e\	Cle-	.	.
4AA/	-ro,	.	.	4c#\	.	4e\	-ro,	.	.
8A\	in-	.	.	8c#\	.	8e\	in-	.	.
8G#\	-ter-	.	.	8B\	.	8e\	-ter-	.	.
!!LO:LB:g=original
=12	=12	=12	=12	=12	=12	=12	=12	=12	=12
!	!	!	!LO:DY:rj	!	!	!	!	!	!LO:DY:rj
4.F#\	-ce-	.	f	4.A/	.	4.a\	-ce-	.	f
8F#\	-de	.	.	8A/	.	8a\	-de	.	.
4F#\	pro	.	.	4A/	.	4c#\	pro	.	.
4BB/	de-	.	.	4A/	.	4d#X\	de-	.	.
=13	=13	=13	=13	=13	=13	=13	=13	=13	=13
2C#/	-vo-	.	.	2G#/	.	2e\	-vo-	.	.
2C#/	-to	.	.	2G#/	.	2e\	-to	.	.
=14	=14	=14	=14	=14	=14	=14	=14	=14	=14
!	!	!	!LO:DY:rj	!	!	!	!	!	!LO:DY:rj
4.AA/	fe-	.	p	4.A/	.	(4c#\	fe-	.	p
.	.	.	.	.	.	8e#X\)	.	.	.
8AA/	-mi-	.	.	8A/	.	8f#\	-mi-	.	.
4BB/	-ne-	.	.	4G#/	.	4B\	-ne-	.	.
4BB/	-o	.	.	4G#/	.	4e#\	-o	.	.
=15	=15	=15	=15	=15	=15	=15	=15	=15	=15
(2..BB/	se-	.	.	(2..A/	.	(8e\	se-	.	.
.	.	.	.	.	.	4d#X\	.	.	.
.	.	.	.	.	.	8c#\	.	.	.
.	.	.	.	.	.	4.d#\	.	.	.
8E\)	.	.	.	8G#/)	.	8e\)	.	.	.
!!LO:PB:g=original
=16	=16	=16	=16	=16	=16	=16	=16	=16	=16
2E\	-xu:	.	.	2G#/	.	2e\	-xu:	.	.
8r	.	.	.	8r	.	8r	.	.	.
8C#/	sen-	.	f	8G#/	.	8e\	sen-	.	f
8C#/	-ti-	.	.	8G#/	.	8e\	-ti-	.	.
8C#/	-ant	.	.	8G#/	.	8e\	-ant	.	.
=17	=17	=17	=17	=17	=17	=17	=17	=17	=17
4.BB#X/	om-	.	.	4.G#/	.	4.d#X\	om-	.	.
8BB#/	-nes	.	.	8G#/	.	8d#\	-nes	.	.
4C#/	tu-	.	.	4G#/	.	4e\	tu-	.	.
4AA/	-um	.	.	4F##/	.	4c#\	-um	.	.
=18	=18	=18	=18	=18	=18	=18	=18	=18	=18
4.GG#/	pi-	.	.	4.G#/	.	4.B#X\	pi-	.	>
8G#\	-van-	.	.	8B#X\	.	8d#X\	-va-	.	.
4G#\	-cem,	.	.	4B#\	.	4d#\	-nem,	.	]
!	!	!	!LO:DY:rj	!	!	!	!	!	!LO:DY:rj
(8F#\L	qui-	.	f	(8Bn\L	.	(8d#\L	qui-	.	f
8BB\J)	.	.	.	8An\J)	.	8f#\J)	.	.	.
!!LO:LB:g=original
=19	=19	=19	=19	=19	=19	=19	=19	=19	=19
2E\	-cum-	.	.	2G#/	.	2e\	-cum-	.	.
8E\	-que	.	.	8G#/	.	8B\	-que	.	.
8E\	ce-	.	.	8G#/	.	8B\	ce-	.	.
8F#\	-le-	.	.	8A/	.	8d#X\	-le-	.	.
8BB/	-brant	.	.	8A/	.	8f#\	-brant	.	.
=20	=20	=20	=20	=20	=20	=20	=20	=20	=20
2E\	Tu-	.	.	2G#/	.	2e\	Tu-	.	.
8E\	-am	.	.	8G#/	.	8B\	-am	.	.
(8D/L	[[San-	San-	.	(8G#/L	.	4e\	San-	.	.
8C#/J)	.	.	.	8A/J)	.	.	.	.	.
8BB/	-ctam	-ctam	.	8G#/	.	8dn\	-ctam	.	.
=21	=21	=21	=21	=21	=21	=21	=21	=21	=21
!LO:TX:a:t=dolce	!	!	!	!	!	!LO:TX:a:t=dolce	!	!	!
4AA/	Com-	Sa-	.	4A\	.	4c#\	[[Com-	San-	<
8BB/	-me-	-ctam	.	8G#\	.	8d\	-me-	-ctam	.
8C#/	-mo-	Com-	.	8A\	.	8e\	-mo-	Com-	[
4D\	-ra-	-me-	.	4A\	.	(8g#\L	-ra-	-me-	>
.	.	.	.	.	.	8f#\J)	.	.	.
4D\	-ti]]	-mo-	.	(8A#X\L	.	(8e\L	-ti-	-mo-	.
.	.	.	.	8B\J)	.	8d\J)	.	.	]
!!LO:LB:g=original
=22	=22	=22	=22	=22	=22	=22	=22	=22	=22
4E\	.	-ra-	.	4A\	.	4c#\	-o-	-ra-	.
4E\	.	-ti-	.	8G#\L	.	(8B\L	-nem]]	-ti-	.
.	.	.	.	8A\J	.	8c#\J)	.	.	.
4E\	.	-o-	.	4B\	.	4d\	.	-o-	.
4E\	.	-nem	.	4G#\	.	4e\	.	-nem	.
=23	=23	=23	=23	=23	=23	=23	=23	=23	=23
4AA/	Com-	.	.	4A\	.	4c#\	Com-	.	.
!	!	!	!LO:DY:rj	!	!	!	!	!	!LO:DY:rj
8D\	-me-	.	f	8A\	.	8f#\	-me-	.	f
8D\	-mo-	.	.	8A\	.	8f#\	-mo-	.	.
8E\	-ra-	.	.	8A\	.	8B\	-ra-	.	.
8E\	-ti-	.	.	8A\	.	8B\	-ti-	.	.
4E\	-o-	.	.	4G#\	.	4e\	-o-	.	.
=24	=24	=24	=24	=24	=24	=24	=24	=24	=24
4A\	-nem	.	.	4A\	.	4c#\	-nem	.	.
!	!	!	!LO:DY:rj	!	!	!	!	!	!LO:DY:rj
(4C#/	a-	.	p	2A\	.	(4A\	a-	.	p
2E\)	.	.	.	.	.	2B\)	.	.	.
.	.	.	.	4G#/	.	.	.	.	.
=25	=25	=25	=25	=25	=25	=25	=25	=25	=25
4AA/	-men,	.	.	4A\	.	4c#\	-men,	.	.
(4C#/	a-	.	.	4A\	.	(4e\	a-	.	.
4BB/	.	.	.	4F#/	.	4d\	.	.	.
4E\)	.	.	.	4G#/	.	4B\)	.	.	.
!!LO:LB:g=original
=26	=26	=26	=26	=26	=26	=26	=26	=26	=26
4A\	-men	.	.	4A\	.	4A\	-men,	.	.
4r	.	.	.	4r	.	4r	.	.	.
!	!	!	!LO:DY:rj	!	!LO:DY:a:rj	!	!	!	!LO:DY:rj
(2D\	a-	.	f	(2d\	f	(2f#\	a-	.	f
=27	=27	=27	=27	=27	=27	=27	=27	=27	=27
2D\	.	.	.	2d\	.	2f#\	.	.	.
2A\)	.	.	.	4c#\	.	4e\	.	.	.
.	.	.	.	4B\)	.	4d\)	.	.	>
=28	=28	=28	=28	=28	=28	=28	=28	=28	=28
!LO:TX:b:t=Finis.	!	!	!	!	!	!	!	!	!
1A 1AA	-men.	.	>]	1c#	.	1e	-men.	.	]]
==	==	==	==	==	==	==	==	==	==
*-	*-	*-	*-	*-	*-	*-	*-	*-	*-
!!!system-decoration: {s1,s2,s3}
!!!AIN: 1 empty 2 tenor
!!!ENC: Marta Lawrence
!!!END: 2021-06-13
!!!ENC: Andrzej Gręziak
!!!END: 2021-06-04
